!!!COM: Scriabin, Alexander
!!!OTL@@FR: Mazurka en mi majeur
!!!OTL@@EN: Mazurka in E Major
!!!OPR@@FR: 10 Mazurkas
!!!OPR@@EN: 10 Mazurkas
!!!OPS: 3
!!!ONM: 4
!!!ODT: 1888–1889
!!!AGN: Mazurka
**kern	**kern	**dynam
*staff2	*staff1	*staff1/2
*Ipiano	*Ipiano	*
*clefF4	*clefG2	*
*k[f#c#g#d#]	*k[f#c#g#d#]	*
*E:	*E:	*
*M3/4	*M3/4	*
=1	=1	=1
4E	8bL	.
.	8gg#J	.
4B 4g#	4.ff#	.
4B 4g#	.	.
.	8ee	.
=2	=2	=2
4BB	8dd#L	.
.	8ee	.
4G# 4B 4e	8ff#	.
.	8gg#	.
4B 4e 4b	8ddd#	.
.	8ccc#J	.
=3	=3	=3
4EE	8bbL	.
.	8ccc#J	.
4G# 4B 4e	4.bb	.
4B 4e 4b	.	.
.	8gg#	.
=4	=4	=4
4BB	8ff#L	.
.	8gg#J	.
4G# 4B 4e	4.ff#	.
4B 4e 4b	.	.
.	8ee	.
=5	=5	=5
4r	8.bL	.
.	[16bJk	.
4E 4B 4e	4g# 4b] 4ee	.
4E 4B 4e	4g# 4b 4gg#	.
=6	=6	=6
*	*^	*
4BB	4rc	8bbL	.
.	.	8aaJ	.
.	.	8qbb	.
4F# 4B 4d#	4a 4b 4dd#	8.aaL	.
.	.	16gg#Jk	.
4F# 4B 4d#	4a 4b 4dd#	4ff#	.
*	*v	*v	*
=7	=7	=7
4r	8bL	.
.	[8bJ	.
4E 4B 4e	4g# 4b] 4ee	.
4E 4B 4e	4g# 4b 4gg#	.
=8	=8	=8
4BB	4bb	.
4F# 4B 4d#	2a 2b 2ff#	.
4F# 4B 4d#	.	.
=9	=9	=9
4E	8bL	.
.	8gg#J	.
4B 4g#	4.ff#	.
4B 4g#	.	.
.	8ee	.
=10	=10	=10
4BB	8dd#L	.
.	8ee	.
4G# 4B 4e	8ff#	.
.	8gg#	.
4B 4e 4b	8ddd#	.
.	8ccc#J	.
=11	=11	=11
4EE	8bbL	.
.	8ccc#J	.
4G# 4B 4e	4.bb	.
4B 4e 4b	.	.
.	8gg#	.
=12	=12	=12
4BB	8ff#L	.
.	8gg#J	.
4G# 4B 4e	4.ff#	.
4B 4e 4b	.	.
.	8ee	.
=13	=13	=13
4r	8.bL	.
.	[16bJk	.
4E 4B 4e	4g# 4b] 4ee	.
4E 4B 4e	4g# 4b 4gg#	.
=14	=14	=14
*	*^	*
4BB	4rc	8bbL	.
.	.	8aaJ	.
.	.	8qbb	.
4F# 4B 4d#	4a 4b 4dd#	8.aaL	.
.	.	16gg#Jk	.
4F# 4B 4d#	4a 4b 4dd#	4ff#	.
*	*v	*v	*
=15	=15	=15
4r	8bL	.
.	[8bJ	.
4E 4B 4e	4g# 4b] 4ee	.
4E 4B 4e	4g# 4b 4gg#	.
=16	=16	=16
8qBB	.	.
4F# 4B 4d#	4a [4b 4ff#	.
4E 4B 4e	4g# 4b] 4ee	.
4r	4r	.
=17	=17	=17
8BL	4r	.
8gnJ	.	.
4.f#	4gn 4b	.
.	4g 4b 4cc#	.
8e	.	.
=18	=18	=18
8dnL	4gn 4b 4ddn	.
8B	.	.
8d	4g 4b 4ee	.
8c#	.	.
8c#	4e 4a#X 4ff#	.
8F#J	.	.
=19	=19	=19
8E#XL	4r	.
8F#	.	.
8B	4dn 4b 4ff#	.
8c#	.	.
8dn	4r	.
8f#J	.	.
=20	=20	=20
8gnL	4r	.
8bJ	.	.
2ddn	4r	.
.	4ff# 4bb	.
=21	=21	=21
8F#L	4r	.
8dnJ	.	.
4.c#	4dn 4f#	.
.	4d 4f# 4g#X	.
8B	.	.
=22	=22	=22
8AL	4dn 4f# 4a	.
8F#	.	.
8A	4d 4f# 4b	.
8G#	.	.
8G#	4B 4e#X 4cc#	.
8C#J	.	.
=23	=23	=23
8BB#XL	4r	.
8C#	.	.
8F#	4A 4f# 4cc#	.
8G#	.	.
8A	4r	.
8B#XJ	.	.
=24	=24	=24
8c#L	4r	.
8f#J	.	.
[2a	4r	.
.	[4a	.
=25	=25	=25
*^	*	*
4AA	2.a_	8aL]	.
.	.	8ff#	.
4Gn 4c#	.	8ee	.
.	.	8dd#	.
[4AA	.	8ee	.
.	.	8ee#XJ	.
=26	=26	=26	=26
4DDn 4AA]	4a]	4.bb	.
4G#X 4e#X	2ddn	.	.
.	.	8bb-X	.
4A 4f#	.	8aaL	.
.	.	8ff#J	.
=27	=27	=27	=27
4AA	[2.a	8aL	.
.	.	8ff#	.
4Gn 4c#	.	8ee	.
.	.	8dd#X	.
[4AA	.	8ee	.
.	.	8ee#XJ	.
=28	=28	=28	=28
4DDn 4AA]	8aL]	4.bb	.
.	8ddnJ	.	.
4G#X 4e#X	2dd	.	.
.	.	8bb-X	.
4A 4f#	.	4aa	.
*v	*v	*	*
=29	=29	=29
4Dn	8ddnL	.
.	8bbn	.
4cn 4f#	8aa	.
.	8gg#	.
4D	8aa	.
.	8aa#XJ	.
=30	=30	=30
4GGn	8bbL	.
.	8ccc#X	.
4E#X 4dn	8dddn	.
.	8ccc#	.
4d 4b	8bb	.
.	8ee#XJ	.
=31	=31	=31
*^	*	*
4FF#	4rc	8ff#L	.
.	.	8f#	.
2F# 2en	4b	8f#	.
.	.	8dd#X	.
.	4a#X	8dd#	.
.	.	8cc#J	.
*v	*v	*	*
=32	=32	=32
4BB	8bL	.
.	8cc#	.
4F# 4d#	8dd#	.
.	8ee	.
4An 4d# 4b	8ff#	.
.	8ff##XJ	.
=33	=33	=33
4E	8bL	.
.	8gg#J	.
4B 4g#	4.ff#X	.
4B 4g#	.	.
.	8ee	.
=34	=34	=34
4BB	8dd#L	.
.	8ee	.
4G# 4B 4e	8ff#	.
.	8gg#	.
4B 4e 4b	8ddd#	.
.	8ccc#J	.
=35	=35	=35
4EE	8bbL	.
.	8ccc#J	.
4G# 4B 4e	4.bb	.
4B 4e 4b	.	.
.	8gg#	.
=36	=36	=36
4BB	8ff#L	.
.	8gg#J	.
4G# 4B 4e	4.ff#	.
4B 4e 4b	.	.
.	8ee	.
=37	=37	=37
4r	8.bL	.
.	[16bJk	.
4E 4B 4e	4g# 4b] 4ee	.
4E 4B 4e	4g# 4b 4gg#	.
=38	=38	=38
*	*^	*
4BB	4rc	8bbL	.
.	.	8aaJ	.
.	.	8qbb	.
4F# 4B 4d#	4a 4b 4dd#	8.aaL	.
.	.	16gg#Jk	.
4F# 4B 4d#	4a 4b 4dd#	4ff#	.
*	*v	*v	*
=39	=39	=39
4r	8bL	.
.	[8bJ	.
4E 4B 4e	4g# 4b] 4ee	.
4E 4B 4e	4g# 4b 4gg#	.
=40	=40	=40
4BB	4bb	.
4F# 4B 4d#	2a 2b 2ff#	.
4F# 4B 4d#	.	.
=41	=41	=41
4E	8bL	.
.	8gg#J	.
4B 4g#	4.ff#	.
4B 4g#	.	.
.	8ee	.
=42	=42	=42
4BB	8dd#L	.
.	8ee	.
4G# 4B 4e	8ff#	.
.	8gg#	.
4B 4e 4b	8ddd#	.
.	8ccc#J	.
=43	=43	=43
4EE	8bbL	.
.	8ccc#J	.
4G# 4B 4e	4.bb	.
4B 4e 4b	.	.
.	8gg#	.
=44	=44	=44
4BB	8ff#L	.
.	8gg#J	.
4G# 4B 4e	4.ff#	.
4B 4e 4b	.	.
.	8ee	.
=45	=45	=45
4r	8.bL	.
.	[16bJk	.
4E 4B 4e	4g# 4b] 4ee	.
4E 4B 4e	4g# 4b 4gg#	.
=46	=46	=46
*	*^	*
4BB	4rc	8bbL	.
.	.	8aaJ	.
.	.	8qbb	.
4F# 4B 4d#	4a 4b 4dd#	8.aaL	.
.	.	16gg#Jk	.
4F# 4B 4d#	4a 4b 4dd#	4ff#	.
*	*v	*v	*
=47	=47	=47
4r	8bL	.
.	[8bJ	.
4E 4B 4e	4g# 4b] 4ee	.
4E 4B 4e	4g# 4b 4gg#	.
=48	=48	=48
8qBB	.	.
4F# 4B 4d#	4a [4b 4ff#	.
4E 4B 4e	4g# 4b] 4ee	.
4r	4r	.
=49	=49	=49
8BBBL 8BB	4r	.
8BBBJ 8BB	.	.
4EE 4E	4B 4e 4g# 4b	.
4GG# 4G#	4B 4e 4g# 4b	.
=50	=50	=50
8BBL 8B	4r	.
8AA 8A	.	.
8AA 8A	4B 4d# 4a 4b	.
8GG#J 8G#	.	.
4FF# 4F#	4B 4d# 4a 4b	.
=51	=51	=51
8BBBL 8BB	4r	.
8BBBJ 8BB	.	.
4EE 4E	4B 4e 4g# 4b	.
4GG# 4G#	4B 4e 4g# 4b	.
=52	=52	=52
4BB 4B	4r	.
2FF# 2F#	4B 4d# 4a 4b	.
.	4B 4d# 4a 4b	.
=53	=53	=53
8BBBL 8BB	4r	.
8BBBJ 8BB	.	.
4EE 4E	4B 4e 4g# 4b	.
4GG# 4G#	4B 4e 4g# 4b	.
=54	=54	=54
8BBL 8B	4r	.
8AA 8A	.	.
8AA 8A	4B 4d# 4a 4b	.
8GG#J 8G#	.	.
4FF# 4F#	4B 4d# 4a 4b	.
=55	=55	=55
8BBBL 8BB	4r	.
8BBBJ 8BB	.	.
4EE 4E	4B 4e 4g# 4b	.
4GG# 4G#	4B 4e 4g# 4b	.
=56	=56	=56
4FF# 4F#	4B 4d# 4a 4b	.
4EE 4E	4B 4e 4g# 4b	.
4r	4r	.
=57||	=57||	=57||
*k[]	*k[]	*
4CC	2g	.
2E 2c	.	.
.	[4ee	.
=58	=58	=58
*	*^	*
4GG	4rc	8eeL]	.
.	.	8dd	.
4E 4c	4rc	8dd	.
.	.	8cc	.
4C 4G 4c	4e	8cc	.
.	.	8bJ	.
=59	=59	=59	=59
*^	*	*	*
4.F	2.c	8eL	2.a	.
.	.	8dJ	.	.
.	.	4.d	.	.
8E	.	.	.	.
8FL	.	.	.	.
8EJ	.	8e	.	.
*v	*v	*	*	*
=60	=60	=60	=60
2D 2c	8eL	2a	.
.	8f	.	.
.	8f	.	.
.	8e	.	.
4GG 4F 4B	8e	[4g	.
.	8d#XJ	.	.
=61	=61	=61	=61
4CC	2e	2g]	.
2E 2c	.	.	.
.	[4ee	4raa	.
=62	=62	=62	=62
4GG	8eeL]	4raa	.
.	8dd	.	.
4E 4c	8dd	4raa	.
.	8cc	.	.
4C 4G 4c	8cc	4ee	.
.	8bJ	.	.
*clefG2	*	*	*
=63	=63	=63	=63
*^	*	*	*
2.c	[4g	8bL	2ee	.
.	.	8b-XJ	.	.
.	8gL]	4b-	.	.
.	8f#X	.	.	.
.	8g	4rc	8raa	.
.	8aJ	.	8ddd	.
*v	*v	*	*	*
=64	=64	=64	=64
2.b-X 2.ee	2gg	8dddL	.
.	.	8ddd-X	.
.	.	8ddd-	.
.	.	8ccc	.
.	4rc	8ccc	.
.	.	8gg#XJ	.
*	*v	*v	*
*clefF4	*	*
=65	=65	=65
4FF	2aa	.
2A 2f	.	.
.	[4aa	.
=66	=66	=66
*^	*^	*
8AAL	8rc	[2b-X	8aaL]	.
8GJ 8c#X	8f	.	8aa-X	.
4G 4c#	8fL	.	8aa-	.
.	8eJ	.	8gg	.
4rEE	4e	8b-L]	8gg	.
.	.	8aJ	8anJ	.
*v	*v	*	*	*
*	*v	*v	*
=67	=67	=67
4D	2a	.
2F 2d	.	.
.	4ff	.
=68	=68	=68
*	*^	*
4FF	[2a-	8a-XL	.
.	.	8ee	.
4C [4d	.	8ee	.
.	.	8dd	.
4A-X 4d] 4f	8a-L]	8dd	.
.	8gJ	8gJ	.
*	*v	*v	*
=69	=69	=69
4GG	2g	.
2E 2c	.	.
.	4cc	.
=70	=70	=70
*	*^	*
4GG	2.c	8cL	.
.	.	8b	.
2E-X 2e-X	.	8b	.
.	.	8a	.
.	.	8a	.
.	.	8cJ	.
*	*v	*v	*
=71	=71	=71
4GG	8cL	.
.	8a-XJ	.
4F 4c	4a-	.
4DD	8r	.
.	8B	.
=72	=72	=72
4GGG	8BL	.
.	8gJ	.
4GG 4F 4B	4g	.
4r	4G	.
=73	=73	=73
4CC	2g	.
2E 2c	.	.
.	[4ee	.
=74	=74	=74
*	*^	*
4GG	4rc	8eeL]	.
.	.	8dd	.
4E 4c	4rc	8dd	.
.	.	8cc	.
4C 4G 4c	4e	8cc	.
.	.	8bJ	.
=75	=75	=75	=75
*^	*	*	*
4.F	2.c	8eL	2.a	.
.	.	8dJ	.	.
.	.	4.d	.	.
8E	.	.	.	.
8FL	.	.	.	.
8EJ	.	8e	.	.
*v	*v	*	*	*
=76	=76	=76	=76
2D 2c	8eL	2a	.
.	8f	.	.
.	8f	.	.
.	8e	.	.
4GG 4F 4B	8e	[4g	.
.	8d#XJ	.	.
=77	=77	=77	=77
4CC	2e	2g]	.
2E 2c	.	.	.
.	[4ee	4raa	.
=78	=78	=78	=78
4GG	8eeL]	4raa	.
.	8dd	.	.
4E 4c	8dd	4raa	.
.	8cc	.	.
4C 4G 4c	8cc	4ee	.
.	8bJ	.	.
*clefG2	*	*	*
=79	=79	=79	=79
*^	*	*	*
2.c	[4g	8bL	2ee	.
.	.	8b-XJ	.	.
.	8gL]	4b-	.	.
.	8f#X	.	.	.
.	8g	4rc	8raa	.
.	8aJ	.	8ddd	.
*v	*v	*	*	*
=80	=80	=80	=80
2.b-X 2.ee	2gg	8dddL	.
.	.	8ddd-X	.
.	.	8ddd-	.
.	.	8ccc	.
.	4rc	8ccc	.
.	.	8gg#XJ	.
*	*v	*v	*
*clefF4	*	*
=81	=81	=81
4FF	2aa	.
2A 2f	.	.
.	[4aa	.
=82	=82	=82
*^	*^	*
8AAL	8rc	[2b-X	8aaL]	.
8GJ 8c#X	8f	.	8aa-X	.
4G 4c#	8fL	.	8aa-	.
.	8eJ	.	8gg	.
4rEE	4e	8b-L]	8gg	.
.	.	8aJ	8anJ	.
*v	*v	*	*	*
*	*v	*v	*
=83	=83	=83
4D	2a	.
2F 2d	.	.
.	4ff	.
=84	=84	=84
*	*^	*
4FF	[2a-	8a-XL	.
.	.	8ee	.
4C [4d	.	8ee	.
.	.	8dd	.
4A-X 4d] 4f	8a-L]	8dd	.
.	8gJ	8gJ	.
*	*v	*v	*
=85	=85	=85
4GG	2g	.
2E 2c	.	.
.	4cc	.
=86	=86	=86
*	*^	*
4GG	2.c	8cL	.
.	.	8b	.
2E-X 2e-X	.	8b	.
.	.	8a	.
.	.	8a	.
.	.	8cJ	.
=87	=87	=87	=87
4GG	2c	8cL	.
.	.	8a-X	.
4F 4c	.	8a-	.
.	.	8g	.
4GG 4F 4B	4G	8g	.
.	.	8eJ	.
*	*v	*v	*
=88	=88	=88
4CC	2c	.
4GG 4E 4c	.	.
4r	4e	.
=89	=89	=89
4AAA 4AA	2c 2a 2ee	.
2EE 2E	.	.
.	4cc 4ee	.
=90	=90	=90
*	*^	*
4DD 4D	[2f	8fL	.
.	.	8cc 8ee	.
2GG#X 2G#X	.	8cc 8ee	.
.	.	8b 8dd	.
.	8fL]	8b 8dd	.
.	[8eJ	8eJ	.
=91	=91	=91	=91
4AA 4A	2e]	2a 2cc	.
4AAA 4AA	.	.	.
4EE 4E	4rc	4c 4a 4ee	.
=92	=92	=92	=92
4DD 4D	[2f	8fL	.
.	.	8cc 8ee	.
2GG#X 2G#X	.	8cc 8ee	.
.	.	8b 8dd	.
.	8fL]	8b 8dd	.
.	[8eJ	8eJ	.
=93	=93	=93	=93
4AA 4A	2e]	2a 2cc	.
4AAA 4AA	.	.	.
4EE 4E	4rc	4c 4a 4ee	.
=94	=94	=94	=94
*^	*	*	*
2D	8DL	2a	8aL	.
.	8e	.	8gg	.
.	8e	.	8gg	.
.	8d	.	8ff	.
8rEE	8d	8rc	8ff	.
8F	8cJ	8a	8eeJ	.
=95	=95	=95	=95	=95
2F	8cL	2a	8eeL	.
.	8BJ	.	8ddJ	.
.	4B	.	4.dd	.
[4E	8rc	8rc	.	.
.	8f	8d 8g#X	8cc	.
=96	=96	=96	=96	=96
2.E]	2f	2d 2g#X	8ccL	.
.	.	.	8a#X	.
.	.	.	8a#	.
.	.	.	8b	.
.	4rc	4rc	8b	.
.	.	.	8eJ	.
*v	*v	*	*	*
*	*v	*v	*
=97	=97	=97
4AAA 4AA	2c 2an 2ee	.
2EE 2E	.	.
.	4cc 4ee	.
=98	=98	=98
*	*^	*
4DD 4D	[2f	8fL	.
.	.	8cc 8ee	.
2GG#X 2G#X	.	8cc 8ee	.
.	.	8b 8dd	.
.	8fL]	8b 8dd	.
.	[8eJ	8eJ	.
=99	=99	=99	=99
4AA 4A	2e]	2a 2cc	.
4AAA 4AA	.	.	.
4EE 4E	4rc	4c 4a 4ee	.
=100	=100	=100	=100
4DD 4D	[2f	8fL	.
.	.	8cc 8ee	.
2GG#X 2G#X	.	8cc 8ee	.
.	.	8b 8dd	.
.	8fL]	8b 8dd	.
.	[8eJ	8eJ	.
=101	=101	=101	=101
4AA 4A	2e]	2a 2cc	.
4AAA 4AA	.	.	.
4EE 4E	4rc	4c 4a 4ee	.
=102	=102	=102	=102
*^	*	*	*
[2D	8DL	[2a	8aL	.
.	8e	.	8gg	.
.	8e	.	8gg	.
.	8d	.	8ff	.
8DL]	8d	8aL]	8ff	.
8GJ	8cJ	8fJ 8a	8eeJ	.
=103	=103	=103	=103	=103
2G	8cL	2.f 2.a	8eeL	.
.	8BJ	.	8ddJ	.
.	4.B	.	4.dd	.
[4GG	.	.	.	.
.	8A	.	8cc	.
=104	=104	=104	=104	=104
2.GG]	8AL	2d 2f	8ccL	.
.	8G	.	8b	.
.	8G	.	8b	.
.	8FJ	.	8a	.
.	4F	4B	8a	.
.	.	.	8gJ	.
*v	*v	*	*	*
*	*v	*v	*
=105	=105	=105
4CC	2g	.
2E 2c	.	.
.	[4ee	.
=106	=106	=106
*	*^	*
4GG	4rc	8eeL]	.
.	.	8dd	.
4E 4c	4rc	8dd	.
.	.	8cc	.
4C 4G 4c	4e	8cc	.
.	.	8bJ	.
=107	=107	=107	=107
*^	*	*	*
4.F	2.c	8eL	2.a	.
.	.	8dJ	.	.
.	.	4.d	.	.
8E	.	.	.	.
8FL	.	.	.	.
8EJ	.	8e	.	.
*v	*v	*	*	*
=108	=108	=108	=108
2D 2c	8eL	2a	.
.	8f	.	.
.	8f	.	.
.	8e	.	.
4GG 4F 4B	8e	[4g	.
.	8d#XJ	.	.
=109	=109	=109	=109
4CC	2e	2g]	.
2E 2c	.	.	.
.	[4ee	4raa	.
=110	=110	=110	=110
4GG	8eeL]	4raa	.
.	8dd	.	.
4E 4c	8dd	4raa	.
.	8cc	.	.
4C 4G 4c	8cc	4ee	.
.	8bJ	.	.
*clefG2	*	*	*
=111	=111	=111	=111
*^	*	*	*
2.c	[4g	8bL	2ee	.
.	.	8b-XJ	.	.
.	8gL]	4b-	.	.
.	8f#X	.	.	.
.	8g	4rc	8raa	.
.	8aJ	.	8ddd	.
*v	*v	*	*	*
=112	=112	=112	=112
2.b-X 2.ee	2gg	8dddL	.
.	.	8ddd-X	.
.	.	8ddd-	.
.	.	8ccc	.
.	4rc	8ccc	.
.	.	8gg#XJ	.
*	*v	*v	*
*clefF4	*	*
=113	=113	=113
4FF	2aa	.
2A 2f	.	.
.	[4aa	.
=114	=114	=114
*^	*^	*
8AAL	8rc	[2b-X	8aaL]	.
8GJ 8c#X	8f	.	8aa-X	.
4G 4c#	8fL	.	8aa-	.
.	8eJ	.	8gg	.
4rEE	4e	8b-L]	8gg	.
.	.	8aJ	8anJ	.
*v	*v	*	*	*
*	*v	*v	*
=115	=115	=115
4D	2a	.
2F 2d	.	.
.	4ff	.
=116	=116	=116
*	*^	*
4FF	[2a-	8a-XL	.
.	.	8ee	.
4C [4d	.	8ee	.
.	.	8dd	.
4A-X 4d] 4f	8a-L]	8dd	.
.	8gJ	8gJ	.
*	*v	*v	*
=117	=117	=117
4GG	2g	.
2E 2c	.	.
.	4cc	.
=118	=118	=118
*	*^	*
4GG	2.c	8cL	.
.	.	8b	.
2E-X 2e-X	.	8b	.
.	.	8a	.
.	.	8a	.
.	.	8cJ	.
*	*v	*v	*
=119	=119	=119
4GG	8cL	.
.	8a-XJ	.
4F 4c	4a-	.
4DD	8r	.
.	8B	.
=120	=120	=120
4GGG	8BL	.
.	8gJ	.
4GG 4F 4B	4g	.
4r	4r	.
=121	=121	=121
4CC	2e	.
4FF##X 4E 4A#X	.	.
4r	[4e	.
=122	=122	=122
*^	*	*
2.C	4rc	8eL]	.
.	.	8d#X	.
.	2A#X	8e	.
.	.	8f#X	.
.	.	8f##X	.
.	.	8A#XJ	.
*v	*v	*	*
=123	=123	=123
4BB	8BL	.
.	8e	.
4G#X 4e	8f#X	.
.	8g#X	.
4r	8an	.
.	8a#XJ	.
=124||	=124||	=124||
*k[f#c#g#d#]	*k[f#c#g#d#]	*
4BB	8bL	.
.	8cc#	.
4F# 4d#	8dd#	.
.	8ee	.
4A 4d# 4b	8ff#	.
.	8ff##XJ	.
=125	=125	=125
4E	8bL	.
.	8gg#J	.
4B 4g#	4.ff#X	.
4B 4g#	.	.
.	8ee	.
=126	=126	=126
4BB	8dd#L	.
.	8ee	.
4G# 4B 4e	8ff#	.
.	8gg#	.
4B 4e 4b	8ddd#	.
.	8ccc#J	.
=127	=127	=127
4EE	8bbL	.
.	8ccc#J	.
4G# 4B 4e	4.bb	.
4B 4e 4b	.	.
.	8gg#	.
=128	=128	=128
4BB	8ff#L	.
.	8gg#J	.
4G# 4B 4e	4.ff#	.
4B 4e 4b	.	.
.	8ee	.
=129	=129	=129
8g#L	8.bL	.
16aL	.	.
16g#JJ	[16bJk	.
4f#	4b] 4ee	.
4E 4B 4e	4g# 4b 4gg#	.
=130	=130	=130
*	*^	*
4BB	4rc	8bbL	.
.	.	8aaJ	.
.	.	8qbb	.
4F# 4B 4d#	4a 4b 4dd#	8.aaL	.
.	.	16gg#Jk	.
4B 4f#	4a 4b 4dd#	4ff#	.
*	*v	*v	*
=131	=131	=131
8g#L	8.bL	.
16aL	.	.
16g#JJ	[16bJk	.
4f#	4b] 4ee	.
4E 4B 4e	4g# 4b 4gg#	.
=132	=132	=132
4BB	4bb	.
4F# 4B 4d#	2a 2b 2ff#	.
4F# 4B 4d#	.	.
=133	=133	=133
4E	8bL	.
.	8gg#J	.
4B 4g#	4.ff#	.
4B 4g#	.	.
.	8ee	.
=134	=134	=134
4BB	8dd#L	.
.	8ee	.
4G# 4B 4e	8ff#	.
.	8gg#	.
4B 4e 4b	8ddd#	.
.	8ccc#J	.
=135	=135	=135
4EE	8bbL	.
.	8ccc#J	.
4G# 4B 4e	4.bb	.
4B 4e 4b	.	.
.	8gg#	.
=136	=136	=136
4BB	8ff#L	.
.	8gg#J	.
4G# 4B 4e	4.ff#	.
4B 4e 4b	.	.
.	8ee	.
=137	=137	=137
8g#L	8.bL	.
16aL	.	.
16g#JJ	[16bJk	.
4f#	4b] 4ee	.
4E 4B 4e	4g# 4b 4gg#	.
=138	=138	=138
*	*^	*
4BB	4rc	8bbL	.
.	.	8aaJ	.
.	.	8qbb	.
4F# 4B 4d#	4a 4b 4dd#	8.aaL	.
.	.	16gg#Jk	.
4B 4f#	4a 4b 4dd#	4ff#	.
*	*v	*v	*
=139	=139	=139
8g#L	8.bL	.
16aL	.	.
16g#JJ	[16bJk	.
4f#	4b] 4ee	.
4E 4B 4e	4g# 4b 4gg#	.
=140	=140	=140
8qBB	.	.
4F# 4B 4d#	4a [4b 4ff#	.
4E 4B 4e	4g# 4b] 4ee	.
4r	4r	.
=141	=141	=141
8BL	4r	.
8gnJ	.	.
4.f#	4gn 4b	.
.	4g 4b 4cc#	.
8e	.	.
=142	=142	=142
8dnL	4gn 4b 4ddn	.
8B	.	.
8d	4g 4b 4ee	.
8c#	.	.
8c#	4e 4a#X 4ff#	.
8F#J	.	.
=143	=143	=143
8E#XL	4r	.
8F#	.	.
8B	4dn 4b 4ff#	.
8c#	.	.
8dn	4r	.
8f#J	.	.
=144	=144	=144
8gnL	4r	.
8bJ	.	.
2ddn	4r	.
.	4ff# 4bb	.
=145	=145	=145
8F#L	4r	.
8dnJ	.	.
4.c#	4dn 4f#	.
.	4d 4f# 4g#X	.
8B	.	.
=146	=146	=146
8AL	4dn 4f# 4a	.
8F#	.	.
8A	4d 4f# 4b	.
8G#	.	.
8G#	4B 4e#X 4cc#	.
8C#J	.	.
=147	=147	=147
8BB#XL	4r	.
8C#	.	.
8F#	4A 4f# 4cc#	.
8G#	.	.
8A	4r	.
8B#XJ	.	.
=148	=148	=148
8c#L	4r	.
8f#J	.	.
[2a	4r	.
.	[4a	.
=149	=149	=149
*^	*	*
4AA	2.a_	8aL]	.
.	.	8ff#	.
4Gn 4c#	.	8ee	.
.	.	8dd#	.
[4AA	.	8ee	.
.	.	8ee#XJ	.
=150	=150	=150	=150
4DDn 4AA]	4a]	4.bb	.
4G#X 4e#X	2ddn	.	.
.	.	8bb-X	.
4A 4f#	.	8aaL	.
.	.	8ff#J	.
=151	=151	=151	=151
4AA	[2.a	8aL	.
.	.	8ff#	.
4Gn 4c#	.	8ee	.
.	.	8dd#X	.
[4AA	.	8ee	.
.	.	8ee#XJ	.
=152	=152	=152	=152
4DDn 4AA]	8aL]	4.bb	.
.	8ddnJ	.	.
4G#X 4e#X	2dd	.	.
.	.	8bb-X	.
4A 4f#	.	4aa	.
*v	*v	*	*
=153	=153	=153
4Dn	8ddnL	.
.	8bbn	.
4cn 4f#	8aa	.
.	8gg#	.
4D	8aa	.
.	8aa#XJ	.
=154	=154	=154
4GGn	8bbL	.
.	8ccc#X	.
4E#X 4dn	8dddn	.
.	8ccc#	.
4d 4b	8bb	.
.	8ee#XJ	.
=155	=155	=155
*^	*	*
4FF#	4rc	8ff#L	.
.	.	8f#	.
2F# 2en	4b	8f#	.
.	.	8dd#X	.
.	4a#X	8dd#	.
.	.	8cc#J	.
*v	*v	*	*
=156	=156	=156
4BB	8bL	.
.	8cc#	.
4F# 4d#	8dd#	.
.	8ee	.
4An 4d# 4b	8ff#	.
.	8ff##XJ	.
=157	=157	=157
4E	8bL	.
.	8gg#J	.
4B 4g#	4.ff#X	.
4B 4g#	.	.
.	8ee	.
=158	=158	=158
4BB	8dd#L	.
.	8ee	.
4G# 4B 4e	8ff#	.
.	8gg#	.
4B 4e 4b	8ddd#	.
.	8ccc#J	.
=159	=159	=159
4EE	8bbL	.
.	8ccc#J	.
4G# 4B 4e	4.bb	.
4B 4e 4b	.	.
.	8gg#	.
=160	=160	=160
4BB	8ff#L	.
.	8gg#J	.
4G# 4B 4e	4.ff#	.
4B 4e 4b	.	.
.	8ee	.
=161	=161	=161
4r	8.bL	.
.	[16bJk	.
4E 4B 4e	4g# 4b] 4ee	.
4E 4B 4e	4g# 4b 4gg#	.
=162	=162	=162
*	*^	*
4BB	4rc	8bbL	.
.	.	8aaJ	.
.	.	8qbb	.
4F# 4B 4d#	4a 4b 4dd#	8.aaL	.
.	.	16gg#Jk	.
4F# 4B 4d#	4a 4b 4dd#	4ff#	.
*	*v	*v	*
=163	=163	=163
4r	8bL	.
.	[8bJ	.
4E 4B 4e	4g# 4b] 4ee	.
4E 4B 4e	4g# 4b 4gg#	.
=164	=164	=164
4BB	4bb	.
4F# 4B 4d#	2a 2b 2ff#	.
4F# 4B 4d#	.	.
=165	=165	=165
4E	8bL	.
.	8gg#J	.
4B 4g#	4.ff#	.
4B 4g#	.	.
.	8ee	.
=166	=166	=166
4BB	8dd#L	.
.	8ee	.
4G# 4B 4e	8ff#	.
.	8gg#	.
4B 4e 4b	8ddd#	.
.	8ccc#J	.
=167	=167	=167
4EE	8bbL	.
.	8ccc#J	.
4G# 4B 4e	4.bb	.
4B 4e 4b	.	.
.	8gg#	.
=168	=168	=168
4BB	8ff#L	.
.	8gg#J	.
4G# 4B 4e	4.ff#	.
4B 4e 4b	.	.
.	8ee	.
=169	=169	=169
4r	8.bL	.
.	[16bJk	.
4E 4B 4e	4g# 4b] 4ee	.
4E 4B 4e	4g# 4b 4gg#	.
=170	=170	=170
*	*^	*
4BB	4rc	8bbL	.
.	.	8aaJ	.
.	.	8qbb	.
4F# 4B 4d#	4a 4b 4dd#	8.aaL	.
.	.	16gg#Jk	.
4F# 4B 4d#	4a 4b 4dd#	4ff#	.
*	*v	*v	*
=171	=171	=171
4r	8bL	.
.	[8bJ	.
4E 4B 4e	4g# 4b] 4ee	.
4E 4B 4e	4g# 4b 4gg#	.
=172	=172	=172
8qBB	.	.
4F# 4B 4d#	4a [4b 4ff#	.
4E 4B 4e	4g# 4b] 4ee	.
4r	4r	.
=173	=173	=173
8BBBL 8BB	4r	.
8BBBJ 8BB	.	.
4EE 4E	4B 4e 4g# 4b	.
4GG# 4G#	4B 4e 4g# 4b	.
=174	=174	=174
8BBL 8B	4r	.
8AA 8A	.	.
8AA 8A	4B 4d# 4a 4b	.
8GG#J 8G#	.	.
4FF# 4F#	4B 4d# 4a 4b	.
=175	=175	=175
8BBBL 8BB	4r	.
8BBBJ 8BB	.	.
4EE 4E	4B 4e 4g# 4b	.
4GG# 4G#	4B 4e 4g# 4b	.
=176	=176	=176
4BB 4B	4r	.
2FF# 2F#	4B 4d# 4a 4b	.
.	4B 4d# 4a 4b	.
=177	=177	=177
8BBBL 8BB	4r	.
8BBBJ 8BB	.	.
4EE 4E	4B 4e 4g# 4b	.
4GG# 4G#	4B 4e 4g# 4b	.
=178	=178	=178
8BBL 8B	4r	.
8AA 8A	.	.
8AA 8A	4B 4d# 4a 4b	.
8GG#J 8G#	.	.
4FF# 4F#	4B 4d# 4a 4b	.
=179	=179	=179
2.r	2.r	.
=180	=180	=180
*	*^	*
8CCnL 8Cn	4fn 4a	8cnL 8ccn	.
8CCJ 8C	.	8aJ 8aa	.
4FFn 4Fn	2a 2cc	4.gn 4.ggn	.
4AA 4A	.	.	.
.	.	8f 8ffn	.
=181	=181	=181	=181
8CnL 8cn	4b-X	8eL 8ee	.
8BB-X 8B-X	.	8fn 8ffn	.
8BB- 8B-	4ccn 4ee	8gn 8ggn	.
8AAJ 8A	.	8a 8aa	.
4GGn 4Gn	4ee	8b- 8bb-X	.
.	.	8bnJ 8bbn	.
=182	=182	=182	=182
8CCnL 8Cn	2.ffn 2.aa	8ccnL 8cccn	.
8CCJ 8C	.	8ddnJ 8dddn	.
4FFn 4Fn	.	4.cc 4.ccc	.
4AA 4A	.	.	.
.	.	8a 8aa	.
=183	=183	=183	=183
2Cn 2B-X 2e	2.ccn	8gnL 8ggn	.
.	.	8f#X 8ff#X	.
.	.	8g 8gg	.
.	.	8a 8aa	.
4CCn 4C	.	8b-X 8bb-X	.
.	.	8A#XJ 8a#X	.
=184	=184	=184	=184
4BBB 4BB	4e 4g#X	8BnL 8bn	.
.	.	8BJ 8b	.
2G# 2g#	4rc	4e 4ee	.
.	4rc	4g# 4gg#	.
=185	=185	=185	=185
4AAA#X 4AA#X	2.gg#	8cc#L 8ccc#	.
.	.	8cc#J 8ccc#	.
2E 2c# 2g#	.	4dd# 4ddd#	.
.	.	4ee 4eee	.
=186	=186	=186	=186
4BBB 4BB	2eee	8gg#L 8ggg#	.
.	.	8aa 8aaa	.
4G# 4e 4b	.	8aa#X 8aaa#X	.
.	.	8bb 8bbb	.
4An 4d# 4b	4fff#	8ccc# 8cccc#	.
.	.	8bbJ 8bbb	.
*	*v	*v	*
=187	=187	=187
4G# 4e 4b	2.eee 2.bbb 2.eeee	.
2EEE 2EE	.	.
==	==	==
*-	*-	*-
!!!system-decoration: {(*)}
!!!ENC: Bryan Jacob Bell
!!!END: November 2021 to April 2022
!!!PED: Günter Philipp
!!!PTL: Ausgewählte Klavierwerke (Edition Peters)
